X: 14671
T: Gan Ainm
R: jig
M: 6/8
K: Ddorian
|:D2d dce|dcA GAc|D2d dcd|fed Acf|dAd dce|
dcA GAc|1 egf edc|Bdc BGA:|2 fed edc|dcA GAc||
K: Dmix
|:D2A A2B|c2B d3|d2c B2G|A2F E2F|
[1 D2A A2B|c2B d3|d2c B2G|FED EFG:|
[2 D2E F2G|AGF G2A|B2A G2F|E3 D3||

